src/actions/24/tab-new.svg

<svg xmlns="http://www.w3.org/2000/svg" viewBox="0 0 24 24">
    <path d="M4 4v16h10v-1H5V5h4v3h10v6h1V7h-3V4H4zm13 11v2h-2v1h2v2h1v-2h2v-1h-2v-2h-1z" style="fill:currentColor;fill-opacity:1;stroke:none;color:#050505;opacity:.7"/>
</svg>

<svg xmlns="http://www.w3.org/2000/svg" viewBox="0 0 24 24">
  <defs id="defs3051">
    <style type="text/css" id="current-color-scheme">
      .ColorScheme-Text {
        color:#363636;
      }
      </style>
  </defs>
 <path style="fill:currentColor;fill-opacity:1;stroke:none" 
     d="M 4 4 L 4 5 L 4 19 L 4 20 L 14 20 L 14 19 L 5 19 L 5 5 L 9 5 L 9 8 L 17 8 L 19 8 L 19 14 L 20 14 L 20 7 L 19 7 L 17 7 L 17 4 L 9 4 L 5 4 L 4 4 z M 17 15 L 17 17 L 15 17 L 15 18 L 17 18 L 17 20 L 18 20 L 18 18 L 20 18 L 20 17 L 18 17 L 18 15 L 17 15 z "
     class="ColorScheme-Text"
     />
</svg>
